store-clock.svg

<svg fill="currentColor" viewBox="0 0 24 24"><path d="M18 4H2V2h16zm-.5 9H16v5l3.61 2.16.75-1.22-2.86-1.69zm6.5 4c0 3.87-3.13 7-7 7-3.53 0-6.43-2.61-6.92-6H2v-6H1v-2l1-5h16l1 5v.29c2.89.87 5 3.54 5 6.71M4 16h6v-4H4zm18 1c0-2.76-2.24-5-5-5s-5 2.24-5 5 2.24 5 5 5 5-2.24 5-5"/></svg>

<svg  viewBox="0 0 24 24" fill="currentColor"><path  d="M18 4H2V2H18V4M17.5 13H16V18L19.61 20.16L20.36 18.94L17.5 17.25V13M24 17C24 20.87 20.87 24 17 24C13.47 24 10.57 21.39 10.08 18H2V12H1V10L2 5H18L19 10V10.29C21.89 11.16 24 13.83 24 17M4 16H10V12H4V16M22 17C22 14.24 19.76 12 17 12S12 14.24 12 17 14.24 22 17 22 22 19.76 22 17Z"/></svg>
